X:15215
T:Sergeant Earley's Dream
R:Reel
S:
H:
N:
D:
Z:Adrian Scahill
M:4/4
L:1/8
K:C
A2DE FAcA|GECD EFGE|D3E F3G|(3ABc de fedc|\
A2DE FAcA|GECD EFGE|D3E FAcA|GFEF D4:||\
Addc d3e|fded cAGF|ECEG c3d|eccB cAGB|\
Addc d3e|fded cAGB|AEE2 cEE2|CDEC D4:||
